src/images/app-icons/dark-theme/SecurityVerifyCredentials.svg

<svg xmlns="http://www.w3.org/2000/svg" viewBox="0 0 32 32"><defs><linearGradient id="SecurityVerifyCredentials_svg__a" x1="6" y1="25.5" x2="27" y2="25.5" gradientUnits="userSpaceOnUse"><stop offset=".1" stop-opacity="0"/><stop offset=".75"/></linearGradient><linearGradient id="SecurityVerifyCredentials_svg__c" y1="32" x2="32" gradientUnits="userSpaceOnUse"><stop offset=".2" stop-color="#8a3ffc"/><stop offset=".8" stop-color="#30b0ff"/></linearGradient><mask id="SecurityVerifyCredentials_svg__b" x="0" y="0" width="32" height="32" maskUnits="userSpaceOnUse"><path d="M15 29a9.011 9.011 0 01-9-9V7.618l9-4.5 11 5.5V6.382l-11-5.5-11 5.5V20a11 11 0 0022 0h-2a9.011 9.011 0 01-9 9z" fill="#fff"/><path fill="url(#SecurityVerifyCredentials_svg__a)" d="M6 19h21v13H6z"/></mask></defs><g data-name="Layer 2"><g data-name="Dark theme icons"><g mask="url(#SecurityVerifyCredentials_svg__b)"><path fill="url(#SecurityVerifyCredentials_svg__c)" d="M0 0h32v32H0z"/></g><path d="M20 20h4a1 1 0 011 1v2h-6v-2a1 1 0 011-1z" fill="#f4f4f4"/><circle cx="22" cy="17" r="2" fill="#f4f4f4"/><path d="M28 27H16a2 2 0 01-2-2V13a2 2 0 012-2h12a2 2 0 012 2v12a2 2 0 01-2 2zM16 13v12h12V13z" fill="#f4f4f4"/></g></g></svg>

<svg xmlns="http://www.w3.org/2000/svg" xmlns:xlink="http://www.w3.org/1999/xlink" viewBox="0 0 32 32"><defs><style>.cls-1{fill:#fff;}.cls-2{fill:url(#linear-gradient);}.cls-3{mask:url(#mask);}.cls-4{fill:url(#linear-gradient-2);}.cls-5{fill:#f4f4f4;}</style><linearGradient id="linear-gradient" x1="6" y1="25.5" x2="27" y2="25.5" gradientUnits="userSpaceOnUse"><stop offset="0.1" stop-opacity="0"/><stop offset="0.75"/></linearGradient><mask id="mask" x="0" y="0" width="32" height="32" maskUnits="userSpaceOnUse"><path class="cls-1" d="M15,29a9.011,9.011,0,0,1-9-9V7.618l9-4.5,11,5.5V6.382L15,.882,4,6.382V20a11,11,0,0,0,22,0H24A9.011,9.011,0,0,1,15,29Z"/><rect class="cls-2" x="6" y="19" width="21" height="13"/></mask><linearGradient id="linear-gradient-2" y1="32" x2="32" gradientUnits="userSpaceOnUse"><stop offset="0.2" stop-color="#8a3ffc"/><stop offset="0.8" stop-color="#30b0ff"/></linearGradient></defs><g id="Layer_2" data-name="Layer 2"><g id="Dark_theme_icons" data-name="Dark theme icons"><g class="cls-3"><rect class="cls-4" width="32" height="32"/></g><path class="cls-5" d="M20,20h4a1,1,0,0,1,1,1v2a0,0,0,0,1,0,0H19a0,0,0,0,1,0,0V21A1,1,0,0,1,20,20Z"/><circle class="cls-5" cx="22" cy="17" r="2"/><path class="cls-5" d="M28,27H16a2,2,0,0,1-2-2V13a2,2,0,0,1,2-2H28a2,2,0,0,1,2,2V25A2,2,0,0,1,28,27ZM16,13V25H28V13Z"/></g></g></svg>
